X:1
T:Title
%%score { ( 1 2 ) | 3 }
L:1/8
M:4/4
K:Eb
V:1 treble nm="Grand Piano"
V:2 treble 
V:3 bass 
V:1
 z4 z2[Q:1/4=100] E[EG] | [Ec]2 [EG]2 BAGF | [EG]4- [EG][EB][EB]=A | B2 AG A2 BA | [EG]4- [EG]FFG | %5
 A2 GF [CE]2 [CF][CE] | [=B,D]4- [B,D][Ec][Ee][Ed] | [Ec]2 =Bc d2 ed | [Ec]4- [Ec][Ec][Ec][FB] | %9
 [FB][FA][FA][EG] [EG][DF][DB][EA] | [EG]4- [EG][EB][EB][FA] | %11
 [FA][G,EG][G,EG][A,DF] [A,DF][G,E][EA][G,DG] | [G,DF]4- [G,DF]DDE | F2 FG [FA]2 [G=B][Ac] | %14
 [Gd]4- [Gd][Gc][Ge][Ad] | [Ac]2 [G=B][Ac] [Gd]2 [Ge][Fd] | [Ec]6 z2 |] %17
V:2
 z4 z .C3 | x8 | x8 | x8 | x8 | x8 | x8 | x8 | x8 | x8 | x8 | x8 | x8 | x8 | x8 | x8 | x8 |] %17
V:3
 z4 z [C,G,][C,G,][C,C] | [C,C]2 [C,C]2 [F,CF][F,CF][F,CF][F,C] | [C,C]4- [C,C][C,C][C,C][F,CF] | %3
 [F,CF]2 [F,CF][F,CF] [F,CF]2 [F,CF][F,CF] | [C,C]4- [C,C][G,=B,D][G,B,D][F,B,D] | %5
 [F,=B,D]2 [F,B,D][F,B,D] [G,,G,]2 [G,,G,][G,,G,] | [G,,F,]4- [G,,F,][C,G,][C,G,][C,C] | %7
 [C,C]2[K:treble] [G,DF][G,DF] [G,=B,F]2 [G,B,F][G,B,F] | [C,G,]4- [C,G,][C,G,][C,G,][C,A,] | %9
 [C,A,][C,A,][C,A,][C,G,] [C,G,][C,A,][C,A,][C,G,] | [C,G,]4- [C,G,][C,G,][C,G,][C,F,] | %11
 [C,F,]C,C,C, C,C,[C,G,]=B,, | =B,,4- B,,G,G,[C,G,C] | [C,G,C]2 [C,G,C][C,G,C] [C,C]2 [F,C][F,C] | %14
 [F,=B,]4- [F,B,][E,C][E,C][E,C] | [F,C]2 [F,C][F,C] [F,=B,]2 [F,B,][F,B,] | [C,C]6 z2 |] %17

